X: 13420
T: Floating Crowbar, The
R: reel
M: 4/4
K: Dmixolydian
|:dB|AD D2 AD D2|AD D2 A2GF|EG G2 AGcG|EF F2 GABd|
AD D2 AD D2|AD D2 G2FG|A3B cded|1 cAGE D2 dB:|2 cAGE D2 (3EFG||
|:Add^c d2 (3B^cd|eaag efga|eA A2 AG (3EFG|A3G EFGE|
Add^c d2 (3B^cd|eaag efge|afge fded|1 cAGE D2 (3EFG:|2 cAGE D2dB||
|:AD D2 AD D2|AD D2 A2GF|EG G2 AGcG|EF F2 cBBA|
AD D2 AD D2|AD D2 G2FG|A3B c4|c2 cB cBAG||
|:Add^c d2 (3B^cd|eaag efga|eA A2 AG (3EFG|A3G EFGE|
Add^c d2 (3B^cd|eaag efge|afge fded|1 cAGE D2 (3EFG:|2 cAGE D2dB||

